(
s.boot;

{
    var bufferSize, buffer, env, drone, wind, reverb, granularTextures;

    bufferSize = 44100;
    buffer = Buffer.alloc(s, bufferSize, 1);
    buffer.chebyMsg([1, 0, 0, 0, 0, 0, 0, 0, 0, 0]);

    // Rellenar el buffer con ruido blanco
    buffer.fillUsing { |sampleIndex| [sampleIndex, [-1, 1].choose] };

    // Envoltura para controlar la duración
    env = Env.perc(0.5, 15).kr(doneAction: 2);

    // Drone etéreo
    drone = SinOsc.ar(freq: [440, 442], mul: env * 0.2);

    // Aquí simularé la creación de otros elementos, ya que no tengo la totalidad de tu código:
    // Sonido de viento
    wind = WhiteNoise.ar(0.3);

    // Reverb
    reverb = FreeVerb.ar(drone + wind, mix: 0.5, room: 0.7);

    // Texturas granulares (ejemplo simplificado)
    granularTextures = GrainSin.ar(2, Impulse.kr(10), 0.1, buffer.bufnum, 1, 2, 1);

    // Mezclando todo
    reverb + granularTextures;
}.play;
)
