
-- 4 de diciembre de 2023
-- {
--     "mode_tidal_supercollider": "tidal",
--     "create_log_file": false,
--     "ghci_path": "ghci",
--     "only_system_commands": true,
--     "sclang_path": "sclang",
--     "boot_tidal_path": "/usr/share/haskell-tidal/BootTidal.hs",
--     "api_enabled": true,
--     "bot_mode": "assistant",
--     "assistant_retrieval_folder": "./assistants/tidal_livecoding/retrieval_files/",
--     "api_key_file": "apikey.txt",
--     "system_prompt_file": "./assistants/tidal_livecoding/system_prompts/system_prompt_01",
--     "model": "gpt-4-1106-preview",
--     "temperature": 1,
--     "max_tokens": 256,
--     "top_p": 1,
--     "frequency_penalty": 0,
--     "presence_penalty": 0,
--     "wait_time_before_api": 20,
--     "wait_time_after_api": 20
-- }

hush

d1 $ degradeBy 0.2 $ sound "cpu:2*4 [hi*2 <lo cpu2> <sn*3 db*5>]" # pan (sine) # speed (0.5) # lpf (slow 6 $ range 200 1200 $ rand) # hpf (slow 4 $ range 500 1000 $ rand) -- gpt-4-1106-preview

-- grabar path: '/home/carlos/.local/share/SuperCollider/Recordings/SC_240107_174836.wav'
d2 $ degradeBy 0.3 $ s "gab*12" # up (irand 8) # speed (slow 6 $ sine) # room 0.1 # sz 0.1 # delay 0.2 # delayt 0.5 # delayfb 0.8 # lpf 800 # hpf 200 # gain 0.8 # speed ( 2 + irand 4)-- gpt-4-1106-preview


d3 $ sometimesBy 0.3 (striate 24) $ sound "alphabet*16" # n (run 16) # speed (choose [0.7, 0.8, 1, 1.2, 1.5]) # sustain (rand) # room 0.1 # sz 0.1 # gain 0.6-- gpt-4-1106-preview

-- grabar (bueno) path: '/home/carlos/.local/share/SuperCollider/Recordings/SC_240107_174935.wav'
d3 $ sometimesBy 0.25 (striate 16) $ sound "arpy*24" # n (run 24) # speed (choose [0.6, 0.9, 1.1, 1.3, 1.6]) # sustain (slow 2 $ rand) # room 0.1 # sz 0.1 #gain 0.7 # pan (fast 2 "0 0.8 0.2 1")-- gpt-4-1106-preview

-- grabar path: '/home/carlos/.local/share/SuperCollider/Recordings/SC_240107_175024.wav'
d3 $ sometimesBy 0.3 (striate 16) $ sound "cpu*24" # n (run 24) # speed (choose [0.6, 0.9, 1.1, 1.3, 1.6]) # sustain (slow 3 $ sine) # room 0.1 # sz 0.1 # gain 0.65 # pan (slow 3 $ saw) -- gpt-4-1106-preview

-- grabar path: '/home/carlos/.local/share/SuperCollider/Recordings/SC_240107_175118.wav'
d1 $ slow 2.5 $ degradeBy 0.25 $ sound "cpu:10 [hi*10 <lo cpu2> <sn*3 db*5>]" # pan (slow 2 $ sine) # speed (0.5) # lpf (slow 7 $ range 200 1200 $ rand) # hpf (slow 5 $ range 500 1000 $ rand) -- gpt-4-1106-preview

--me encanta... sigue así

hush

-- grabar path: '/home/carlos/.local/share/SuperCollider/Recordings/SC_240107_175213.wav'
d2 $ degradeBy 0.35 $ s "gab*30" # up (irand 9) # speed (slow 7 $ sine) # room 0.1 # sz 0.1 # delay 0.25 # delayt 0.55 # delayfb 0.75 # lpf 850 # hpf 220 # gain 0.6 # speed (5 + irand 10) -- # pan (slow 3 $ saw) -- gpt-4-1106-preview

-- grabar path: '/home/carlos/.local/share/SuperCollider/Recordings/SC_240107_175334.wav'
d4 $ degradeBy 0.35 $ s "gab*14" # up (irand 10) # speed (slow 7 $ sine) # room 0.1 # sz 0.1 # delay 0.3 # delayt 0.6 # delayfb 0.7 # lpf 850 # hpf 220 # gain 0.6 # speed (3 + irand 2) -- gpt-4-1106-preview

d3 $ sometimesBy 0.3 (striate 20) $ sound "alphabet*28" # n (run 28) # speed (choose [0.5, 0.75, 1, 1.25, 1.5]) # sustain (slow 4 $ rand) # room 0.1 # sz 0.1 # gain 0.9 # pan (slow 2 $ sin) -- gpt-4-1106-preview

d1 $ degradeBy 0.25 $ sound "cpu:5*8 [hi*2 <lo cpu2> <sn*3 db*5>]" # pan (slow 2 $ sine) # speed (0.5) # lpf (slow 8 $ range 200 1200 $ rand) # hpf (slow 6 $ range 500 1000 $ rand) -- gpt-4-1106-preview

--lleva poco a poco la pieza un climax...

-- grabar  path: '/home/carlos/.local/share/SuperCollider/Recordings/SC_240107_175412.wav'
d2 $ degradeBy (slow 20 $ sine) $ s "gab*30" # up (irand 12) # speed (slow 8 $ sine) # room 0.1 # sz 0.1 # delay 0.3 # delayt 0.65 # delayfb 0.7 # lpf 900 # hpf 250 # gain 0.6 # speed (0.1 + irand 20) # pan (slow 4 $ rand)  -- gpt-4-1106-preview

-- grabar path: '/home/carlos/.local/share/SuperCollider/Recordings/SC_240107_175534.wav'
d1 $ degradeBy 0.3 $ sound "cpu:2*8 [hi*4 <lo cpu*2> <sn*6 db*10>]" # pan (slow 4 $ sine) # speed (0.5) # lpf (slow 9 $ range 100 1100 $ rand) # hpf (slow 7 $ range 400 900 $ rand) -- gpt-4-1106-preview

hush

-- quiero unos acordes

d3 $ slow 5 $ sometimesBy 0.2 (striate 8) $ sound "superpiano*4" # n (run 4) # speed (slow 2 $ choose [0.7, 1, 1.3]) # sustain (1.5) # room 0.2 # sz 0.2 # gain 0.7 # pan (slow 3 $ sine) -- gpt-4-1106-preview

--no se oyen notas simultáneas... utiliza stack o algo así

d3 $ stack [slow 5 $ sound "superpiano:1*8", slow 4 $ sound "superpiano:3*4", slow 3 $ sound "superpiano:5*2"] # sustain 2 # room 0.2 # sz 0.2 # gain 0.7 # pan (slow 3 $ sine) -- gpt-4-1106-preview

--mejor pero poco interés musical...

d3 $ stack [density 0.75 $ sound "superpiano:1*4", density 0.5 $ sound "superpiano:3*2", density 0.25 $ sound "superpiano:5"] # sustain 4 # room 0.2 # sz 0.2 # gain 0.8 # pan (slow 2 $ sine) # squiz 10 # speed 0.2 -- gpt-4-1106-preview

--termina la pieza poco a poco


d3 $ stack [density 0.75 $ n "[0,4,7]/2" # s "superpiano", density 0.5 $ n "[7,11,14]/3" # s "superpiano", density 0.25 $ n "[12,16,19]/4" # s "superpiano"] # sustain 4 # room 0.3 # sz 0.3 # gain 0.85 # pan (slow 2 $ rand) # speed (slow 3 $ choose [0.8, 1, 1.2]) # cut 1 -- gpt-4-1106-preview

d1 $ slow 10 $ degradeBy 0.35 $ sound "cpu:*16" # pan (sine) # speed (slow 10 $ range 0.1 0.3 $ rand) # lpf (slow 12 $ range 50 600 $ rand) # hpf (slow 8 $ range 200 700 $ rand) # gain 0.4 -- gpt-4-1106-preview

d1 $ degradeBy 0.4 $ sound "cpu*16" # pan (sine) # speed (slow 12 $ sine) # lpf (slow 10 $ range 100 500 $ rand) # hpf (slow 8 $ range 300 700 $ rand) # gain 0.3 -- gpt-4-1106-preview

--terminando, por favor

d1 $ silence -- gpt-4-1106-preview


d3 $ silence

d4 $ silence

set api off 

d2 $ silence

d4 $ silence -- gpt-4-1106-preview
