// Assistant v3
// 11/11/2023
// https://platform.openai.com/playground?assistant=asst_2lpZXJ7faidBT6M2g3DwgRYi&mode=assistant&thread=thread_pQH9RYbmSMbLVIBsUFiuQvTj
// Terminado por errores...

(
s.waitForBoot({
    var duracion = 20; // Duración del ambiente sonoro en segundos
    var grupoBosque = Group.new;

    // Definición del SynthDef para el viento y las hojas
    SynthDef(\vientoHojas, { |amp = 0.3|
        var sonido = PinkNoise.ar(1);
        var filtroFreq = LFNoise2.kr(0.4, mul: 800, add: 1800).midicps;
        var modulacionAmp = LFNoise2.kr(0.1).abs;
        sonido = BPF.ar(sonido, filtroFreq, rq: 0.5) * modulacionAmp;
        Out.ar(0, sonido * amp);
    }).add;

    // (Las siguientes definiciones de SynthDef deben ser completadas con las implementaciones adecuadas)

    // SynthDef para los pájaros
    SynthDef(\pajaros, { |amp = 0.1|
        // ...
        Out.ar(0, /* sonido de pájaros */ * amp);
    }).add;

    // SynthDef para los insectos
    SynthDef(\insectos, { |amp = 0.05|
        // ...
        Out.ar(0, /* sonido de insectos */ * amp);
    }).add;

    // SynthDef para eventos esporádicos en el bosque
    SynthDef(\eventosEsporadicos, { |amp = 0.08|
        // ...
        Out.ar(0, /* sonido de eventos esporádicos */ * amp);
    }).add;

    // SynthDef para la espacialización y la reverberación
    SynthDef(\espacio, { |inBus = 0, roomSize = 0.5, mix = 0.2|
        var sonido = In.ar(inBus, Bus.audio(s, 2).channels);
        sonido = FreeVerb.ar(sonido, roomSize, mix);
        Out.ar(inBus, sonido);
    }).add;

    s.sync; // Esperar a que los SynthDefs se hayan cargado en el servidor

    // Crear los Synths
    Synth(\vientoHojas, [\amp, 0.3], target: grupoBosque);
    // (Agregar Synths y Pbinds para pájaros, insectos, y eventos esporádicos)

    Synth(\espacio, [\inBus, 0], target: grupoBosque);

    duracion.wait; // Esperar por la duración especificada
    grupoBosque.free; // Liberar todos los nodos asociados al grupo
});
)