:script /usr/share/haskell-tidal/BootTidal.hs


-- grabar: path: '/home/carlos/.local/share/SuperCollider/Recordings/SC_240107_173300.wav'

d1 $ slow (sine*20+7) -- 21 segundos
$ degradeBy 0.2
$ note (run 30) # sound "[cpu2|cpu|snare|clap|hi]" # vowel "o e a u i a u o i e a" # room 0.2
# size (slow 6 $ sine*(0.2) + 0.8) # pan "[0|0.5|1]"
# squiz (slow 6 $ sine*2+1) # speed "<0.05 0.1 3 0.05 0.06> <0.5 0.2 0.1 1 2>" # gain 0.7

hush
