-- Sesión con Grand Orgue

-- {
--     "mode_tidal_supercollider": "tidal",
--     "create_log_file": false,
--     "ghci_path": "ghci",
--     "only_system_commands": true,
--     "supercollider_on": false,
--     "sclang_path": "sclang",
--     "boot_tidal_path": "/usr/share/haskell-tidal/BootTidal.hs",
--     "api_enabled": false,
--     "bot_mode": "assistant",
--     "assistant_retrieval_folder": "./assistants/tidal_livecoding/retrieval_files/",
--     "api_key_file": "apikey.txt",
--     "system_prompt_file": "./assistants/tidal_livecoding/system_prompts/system_prompt_01",
--     "model": "gpt-4-1106-preview",
--     "temperature": 1,
--     "max_tokens": 256,
--     "top_p": 1,
--     "frequency_penalty": 0,
--     "presence_penalty": 0,
--     "wait_time_before_api": 20,
--     "wait_time_after_api": 20
-- }



set api off

-- Estos tres patrones están contectados vía MIDI con un órgano virtual.

-- Patrón del segundo teclado
d2 $ n "[a3 e3 <gs5 a5>, [f5 [g4 f4]? a4]?]" # s "grandorgue" # midichan 1

d2 $ stack [
  n "[a3 e3 <gs5 a5>, [f5 [g4 f4]? a4]?]",
  n "[c6, e6 <b3 d4>, e3*2 [c5? a5] [g3]]"
  ] # s "grandorgue" # midichan 1 # legato 1.5 -- gpt-4-1106-preview

d2 $ degradeBy 0.2 $ n "[a3 e3 <gs5 a5>, [f5 [g4 f4]? a4]?]" # s "grandorgue" # midichan 1 -- gpt-4-1106-preview

d2 $ weave 4 (slow 2 $ s "c6 e6 fs6 b-3 d5 g5 a-5") $ n "[a3 e3 <gs5 a5>, [f5 [g4 f4]? a4]? ~ [cs6 <as3 ds4>, es3*2 [gs5? cs5] [f3]]" # s "grandorgue" # midichan 1 # legato 1.2 -- da error...

d2 $ struct "t*2(5,16)" $ n "[<gs3 bf3 ds4 gs4>, <a3 c4 e4 a4>, <b3 d4 fs4 b4>, <cs4 e4 gs4 cs5>]" # s "grandorgue" # midichan 1 # legato 1.75 -- gpt-4-1106-preview

d2 $ struct "t*3(7,16)" $ n "[<fs4 as4 cs5 fs5>, <gs4 b4 d5 gs5>, <a4 c5 e5 a5>, <bf4 d5 f5 bf5>]" # s "grandorgue" # midichan 1 # legato 1.5 -- gpt-4-1106-preview

-- Patrón del priemr teclado
d1 $ n "d4 e4 c5*3 [c6 g6]*3?" # s "grandorgue" # midichan 0

d1 $ slow 2 $ n "fs4 gs4 e5*3 [e6 c6]*3?" # s "grandorgue" # midichan 0 -- gpt-4-1106-preview

d1 $ n "[d4 d4 e4 f4] [e4 ds4 e4 f4] [c5*3] [c6 g6]*2 c6?" # s "grandorgue" # midichan 0 # legato 1.25 -- gpt-4-1106-preview

d1 $ n "[d4 f4 a4 d5, e4 g4 b4 e5, c5 e5 g5 c6]*2" # s "grandorgue" # midichan 0 # sus 2 -- gpt-4-1106-preview

d1 $ every 3 (fast 2) $ n (shuffle 3 "[d4 f4 a4 d5, e4 gs4 b4 e5, <c5 e5 g5 c6>]*2") # s "grandorgue" # midichan 0 # sus 2.5 -- gpt-4-1106-preview

-- Patrón del pedal
d3 $ n (segment 7 $ range 1 20 sine) # s "grandorgue" # octave 3 # midichan 2

d3 $ slow 3 $ n (iter 4 $ segment 9 $ range 3 24 sine) # s "grandorgue" # octave 2 # midichan 2 -- gpt-4-1106-preview


d3 $ n (off 0.1 (+7) $ struct "t(3,8)" $ range 1 13 $ slow 4 sine) # s "grandorgue" # octave 2 # midichan 2 # legato 2 -- gpt-4-1106-preview

-- Vamos variando los patrones. Estamos en una improvisación en vivo... Sorprende... Añadce también sostenidos y bemoles. Notas rápidas... Añade en algún patrón grandes acordes...

-- mete series atonales rapidas, y ritmos interesantes...


d3 $ fast 4 $ n (run 12) # s "grandorgue" # midichan 2 # legato 0.9 # up (irand 24 - 12) -- gpt-4-1106-preview

-- dame ahora los tres patrones modificados en una sola respuesta. Quiero un cambio súbito de ambiente...


d1 $ slow 4 $ n "[d5 f5 a5 d6, e5 g5 b5 e6, <c6 e6 g6 c7>]*2" # s "grandorgue" # midichan 0 # sus 2.5

d2 $ striate 8 $ n (shuffle 5 "[<a3 e4 a4>, [g3 d4 g4], <f3 c4 f4>]") # s "grandorgue" # midichan 1 # legato 1.25

d3 $ fast 2 $ n (scale "phrygian" $ (run 16)) # s "grandorgue" # midichan 2 # legato 1.5 # octave 3
 -- gpt-4-1106-preview

-- más... sigue evolucionando...

d1 $ n "[g4 a4 b4 c5] [d5 e5 f5 g5] [a5 b5 c6 d6]*4" # s "grandorgue" # midichan 0 # legato 1.25 # detune 0.1

d2 $ n (scale "wholeTone" $ run 8) # s "grandorgue" # midichan 1 # legato 1.5

d3 $ n "[c2, e2, g2, b2] [d2, f2, a2, c3] [b1, d2, g2, b2]*2" # s "grandorgue" # midichan 2 # legato 1 # room 0.3 # sz 0.3 -- gpt-4-1106-preview



d1 $ n (run 8) # s "grandorgue" # midichan 0 # legato 0.5 

d2 $ every 4 (rev) $ n "[a3*3 e3, gs5 a5, f5 g4 f4 a4]" # s "grandorgue" # midichan 1 # legato 1.5 # cut 1

d3 $ jux (iter 3) $ n (run 16) # speed (slow 2 $ sine) # s "grandorgue" # midichan 2 # legato 2 # octave 4 -- gpt-4-1106-preview

-- quiero cambios de paleta de notas... usas demasiado las naturales... 

d1 $ n "(g2 a2 b2 c3 e3 f3 g3)*4" # s "grandorgue" # midichan 0 # legato 1.2

d2 $ n (scale "dorian" $ run 16) # s "grandorgue" # midichan 1 # legato 1.5 # octave 5

d3 $ n "[c3:7 d:5 eb:5 f:6 g:4 ab:5 bb:3]*2" # s "grandorgue" # midichan 2 # legato 1.75 # octave 2 -- gpt-4-1106-preview



d1 $ n "[g2*4 a2*4 b2*4 c3*4 e3*4 f3*4 g3*4]*2" # s "grandorgue" # midichan 0 # legato 1.25

d2 $ every 3 (density 0.75) $ n (scale "lydian" $ run 16) # s "grandorgue" # midichan 1 # legato 1.5

d3 $ juxBy 0.75 (|-* 0.5) $ n "[c3:7, d:5, eb:5, f:6, g:4, ab:5, bb:3]*2" # s "grandorgue" # midichan 2 # legato 1 # octave 3 -- gpt-4-1106-preview

-- cambiemos súbitamente a acordes largos...

d1 $ n "[<g2 a2 b2 c3> <d3 e3 f3 g3> <a3 b3 c4 d4>]*4" # s "grandorgue" # midichan 0 # legato 4 # sus 3

d2 $ slow 3 $ n "[<c4m7 f4m7>, <eb4m7 ab4m7>, <gb4m7 bb4m7>]" # s "grandorgue" # midichan 1 # legato 4 -- da error. No nombres acordes. Hazlos como en otros patrones

d3 $ n "[c1, f1, ab1, c2] [eb1, gb1, bb1, db2]" # s "grandorgue" # midichan 2 # legato 4 # sus 3 -- gpt-4-1106-preview

d1 $ n "[g2 a2 b2 c3]*4 [d3 e3 f3 g3]*4 [a3 b3 c4 d4]*4" # s "grandorgue" # midichan 0 # legato 4 # sus 3

d2 $ slow 3 $ n "[c4 e4 g4 b4, f4 a4 c5 e5, eb4 g4 bb4 db5, ab4 c5 eb5 g5, gb4 bb4 db5 f5, b4 d5 f5 a5]" # s "grandorgue" # midichan 1 # legato 4

d3 $ n "[c1 f1 ab1 c2, eb1 gb1 bb1 db2, gb1 b1 db2 f2]*2" # s "grandorgue" # midichan 2 # legato 4 # sus 3 -- gpt-4-1106-preview

d1 $ n "[g2 a2 b2 c3]*4 [d3 e3 f3 g3]*4 [a3 b3 c4 d4]*4" # s "grandorgue" # midichan 0 # legato 4 # sus 3

d2 $ n "[c4 e4 g4 b4, f4 a4 c5 e5, eb4 g4 bb4 db5, ab4 c5 eb5 g5, gb4 bb4 db5 f5, b4 d5 f5 a5]" # slow 2 # s "grandorgue" # midichan 1 # legato 4

d3 $ n "[c1*4, f1*4, ab1*4, c2*4, eb1*4, gb1*4, bb1*4, db2*4, gb1*4, b1*4, db2*4, f2*4]" # slow 4 # s "grandorgue" # midichan 2 # legato 4 # sus 3 -- gpt-4-1106-preview

hush