d1 $ slow (sine*20+7) 
    $ degradeBy 0.2 
    $ note (run 30)
    # sound "[cpu2|cpu|snare|clap|hi]" 
    # vowel "o e a u i a u o i e a"
    # room 1
    # size (slow 6 $ sine*(0.2) + 0.8)
    # pan "[0|0.5|1]"
    # squiz (slow 6 $ sine*2+1)
    # speed "<0.05 0.1 3 0.05 0.06> <0.5 0.2 0.1 1 2>"
    # gain 0.7


-- d2 $ slow (sine*20+7) 
--     $ degradeBy (slow 3 $ sine*0.5 + 0.2)
--     $ note (run 32)
--     # sound "[cpu2*4|cpu*3|snare*2|clap|hi*5]/2" 
--     # vowel "o e [~ a]/2 u i [a ~]/3 u o i e [a ~]/4"
--     # room 0
--     # size (slow 6 $ sine*(0.1) + 0.9)
--     # pan (slow 2 $ saw)
--     # squiz (slow 8 $ sine*4+2)
--     # speed "<0.05 0.1 3 0.05 [0.06 0.04]> <[0.5 0.7] 0.2 0.1 1 2>"
--     # gain "[0.7 0.6 0.8]"
--     # delay 1.1


-- d3 $ slow 6 $ struct "t(3,8)" $ sound "pad" 
--     # n (run 7 + 24)
--     # speed (slow 2 $ choose [0.75, 1, 1.25, 3, 2, 0.5])
--     # cut 1
--     # shape 0.4
--     # room 0.2
--     # sz 0.1
--     # pan (sine)
--     # delay 0.2
--     # delaytime (1/6)
--     # delayfeedback 0.4
--     # gain 0.6
--     # room "[0|0.5|0.7|0.9|1]"
--     # size 0.89


-- d4 $ slow 4 $ stutWith 2 (1/32) (|+ n "0.5") $ sound "arpy" 
--     # room 0.1 
--     # size 0.2 
--     # n (irand 8 + 7) 
--     # speed (slow 8 $ sine*0.5 + 0.75) 
--     # vowel "a" 
--     # gain "[0.85 0.75]*4"
--     # pan (slow 2 $ sine*0.5) 
--     # delay 0.3 
--     # delaytime (1/11) 
--     # delayfeedback 0.45 -- gpt-4-1106-preview


-- d5 $ slow 4 $ stutWith 3 (1/16) (|+ n "1") $ sound "arpy" 
--     # room 0.1 
--     # size 0.2 
--     # n (irand 8) 
--     # speed (slow 8 $ sine) 
--     # vowel "i" 
--     # gain "[0.9 0.8]*4"
--     # pan (slow 2 $ sine) 
--     # delay 0.4 
--     # delaytime (1/9) 
--     # delayfeedback 0.5 -- gpt-4-1106-preview


-- xfadeIn 1 20 $ silence

-- xfadeIn 2 20 $ silence

-- xfadeIn 3 20 $ silence

-- xfadeIn 4 20 $ silence

-- xfadeIn 5 20 $ silence

-- xfadeIn 6 20 $ silence

-- d6 $ slow 8 $ linger 2 $ struct "t*6(5,16)" $ sound "feel"
--     # speed (slow 2 $ ((+ 0.1) . (* 2)) $ sine)
--     # n (slow 3 $ sine)
--     # room 0.5
--     # sz 0.08
--     # pan "[0|0.5|1]"
--     # gain 1
--     # shape 0.2
--     # delay 0.5
--     # delaytime (5/7)
--     # delayfeedback 0.4

-- unmute 1

-- unmute 2

-- unmute 3

-- unmute 4

-- unmute 5


-- quit