d1 $ sound "bd*9"

d2 $ sound "arpy*29" # pan sine  #  room (sine) # sz 0.5

d3 $ sound "feel*3" # pan (slow 6 $ sine) # speed (slow 2 $ range 0.9 1.1 sine) # delay 0.7 # delaytime (1/6) # delayfeedback 0.5

-- sigamos en un estilo experimental

d1 $ slow 4 $ s "feel*3" # pan (slow 6 $ sine) # speed (slow 2 $ range 0.9 1.1 sine) # delay 0.7 # delaytime (1/6) # delayfeedback 0.5

d2 $ slow 2 $ loopAt 4 $ striate 16 $ sound "arpy*15" # pan (slow 3 sine) # room 0.8 # sz 1.5 # pitch (slow 2 $ sine * 24)

d1 $ slow 4 $ loopAt 4 $ striate 16 $ sound "feel*3" # pan (slow 6 $ sine) # speed (slow 2 $ range 0.9 1.1 sine) # delay 0.7 # delaytime (1/6) # delayfeedback 0.5

d3 $ slow 8 $ degradeBy 0.3 $ sound "space*2" # crush 4 # shape 0.8 # pitch (slow 4 $ range (-12) 12 $ sine) # lpf (slow 2 $ range 400 8000 $ rand) # hpf (slow 2 $ range 200 2000 $ rand)

d2 $ stack [slow 2 $ loopAt 4 $ striate 16 $ sound "arpy*7" # pan (slow 3 sine) # room 0.8 # sz 1.5 # pitch (slow 2 $ sine * 24), slow 6 $ sound "can*4" # pan (sine) # speed (slow 4 $ range 0.7 1.3 sine) # room 1 # sz 0.5 # delay 0.5 # delaytime (1/4) # delayfeedback 0.4]


d2 $ sound "arpy*14" # pan sine  #  room (sine) # sz 0.5



d3 $ slow 8 $ degradeBy 0.3 $ sound "space*2" # crush 4 # shape 0.8 # pitch (slow 4 $ range (-24) 24 $ sine) # lpf (slow 2 $ range 400 8000 $ rand) # hpf (slow 2 $ range 200 2000 $ rand)

d2 $ slow 6 $ sound "can*4" # pan (sine) # speed (slow 4 $ range 0.7 1.3 sine) # room 1 # sz 0.5 # delay 0.5 # delaytime (1/4) # delayfeedback 0.4

d2 $ slow 6 $ sound "can:5*4" # pan (slow 3 sine) # speed (slow 5 $ range (-0.5) 1.5 sine) # room 1 # sz 0.2 # delay 0.6 # delaytime (1/3) # delayfeedback 0.7 # lpf (slow 2 $ range 500 4000 $ sine)

d2 $ slow 10 $ chop 32 $ sound "can:5*8" # pan (slow 6 sine) # speed (slow 3 $ range (-0.2) 1.2 sine) # room 1 # sz 0.4 # delay 0.8 # delaytime (1/3) # delayfeedback 0.6 # lpf (slow 4 $ range 500 6000 $ sine) # hpf (rand)

--haz un patrón con acordes

d3 $ s "feel:2*9 [~ feel]" # n (irand 8) # speed (slow 10 $ range 0.1 2.0 $ rand) # pan (sine) # room 0.7 # size 0.9 # delay 0.6 # delaytime (1/5) # delayfeedback 0.65 # lpf (slow 2 $ range 1000 5000 $ sine) # hpf (slow 2 $ range 500 1500 $ sine)

d3 $ stack [
  s "feel:2*4 [~ feel]" # n (irand 8) # speed (slow 10 $ range 0.1 2.0 $ rand),
  s "arpy*5" # n "[0, 4, 7, 11]/2" # speed (slow 5 $ range 0.5 1.5 $ sine),
  s "gab*2" # n "[7, 11, 14, 18]/2" # speed (slow 3 $ range 0.2 2.0 $ sine)
] # pan (sine) # room 0.7 # size 0.9 # delay 0.6 # delaytime (1/5) # delayfeedback 0.65 # lpf (slow 2 $ range 1000 5000 $ sine) # hpf (slow 2 $ range 500 1500 $ sine)

d3 $ stack [
  s "feel:2*4 [~ feel]" # n (irand 8) # speed (slow 10 $ range 0.1 2.0 $ rand),
  s "arpy*3" # n "[0, 4, 7, 11]/2" # speed (slow 5 $ range 0.5 1.5 $ sine) # octave 6,
  s "gab*2" # n "[7, 11, 14, 18]/2" # speed (slow 8 $ range 0.8 1.2 $ sine) # octave 5
] # pan (choose [0.25, 0.5, 0.75]) # room 0.7 # size 0.9 # delay 0.6 # delaytime (1/5) # delayfeedback 0.65 # lpf (slow 2 $ range 2000 5000 $ sine) # hpf (slow 2 $ range 800 1500 $ sine)

hush