

d1 $ sound "hi lo [hi hi] lo" -- hola


d2 $ sound "hi lo hi"

hjhjh
d3 $ sound "hi  gjihh i u j ji ji"
--45hhh
hhhhhh
hhh
fffhhh
jjjjjjjjggg
jkjkj
jkjhhhhhhjjjjj
sdfsdfhhh
fff
hjhjhhhhggggjjffff
sdf

d4 $ sound