d2 $ sound "kick:7*7"

d1 $ sound "cpu:0 cpu:2 cpu:4 cpu:6 cpu:0 cpu:2 cpu:6 cpu:1"

d3 $ n "0 1 [5 5 5] 4 3 " # sound "drum*4 cpu:0"

d4 $ sound "cpu:0 cpu:2 cpu:4 cpu:6 cpu:0 cpu:2 cpu:6 cpu:8 cpu:9" -- modifica


hush