

hush

-- set model gpt-3.5-turbo

set model gpt-4-1106-preview

set max tokens 210

set api on

d1 $ slow 1 $ s "feel*6" # pan sine # speed (slow 2 $ sine) # cut 1 -- gpt-4-1106-preview

d2 $ degradeBy (slow 1 $ sine) $ s "pad*4" # room 0.5 # size 1.5 # speed (1.5 + slow 1 (range 0.7 1.3 $ sine)) # gain 0.1 -- gpt-4-1106-preview

d2 $ silence

d3 $ stack [jux (rev) $ s "pluck*8" # cut 2 # speed (slow 4 $ sine) # gain 0.8, s "arpy*7" # room 0.9 # size 0.8 # speed (slow 3 $ rand) # gain 0.7] -- gpt-4-1106-preview -- gpt-4-1106-preview
